; generated by Slic3r 1.33.8-prusa3d-win64 on 2017-05-09 at 16:13:19

; external perimeters extrusion width = 0.40mm
; perimeters extrusion width = 0.67mm
; infill extrusion width = 0.67mm
; solid infill extrusion width = 0.67mm
; top infill extrusion width = 0.67mm

M107
M80 ; turn on PSU
M140 S60
M104 S240 ; start E heating
M17; enable motors
G28 X Y Z ; Home
M190 S60
M109 S240
G91
G1 E5 F200
G90
G21 ; set units to millimeters
G90 ; use absolute coordinates
M82 ; use absolute distances for extrusion
G92 E0
G1 Z0.200 F5400.000
G1 E-1.50000 F1800.00000
G92 E0
G1 X113.712 Y117.247 F5400.000
G1 E1.50000 F1800.00000
G1 F1200
G1 X273.003 Y117.243 E9.82211
G1 X273.399 Y117.259 E9.84282
G1 X273.798 Y117.305 E9.86382
G1 X274.193 Y117.381 E9.88483
G1 X274.575 Y117.486 E9.90554
G1 X274.943 Y117.617 E9.92595
G1 X275.306 Y117.778 E9.94666
G1 X275.650 Y117.962 E9.96708
G1 X275.984 Y118.175 E9.98779
G1 X276.302 Y118.412 E10.00850
G1 X276.596 Y118.669 E10.02891
G1 X276.871 Y118.947 E10.04933
G1 X277.128 Y119.249 E10.07004
G1 X277.358 Y119.565 E10.09045
G1 X277.567 Y119.902 E10.11116
G1 X277.749 Y120.254 E10.13187
G1 X277.903 Y120.613 E10.15229
G1 X278.031 Y120.988 E10.17300
G1 X278.131 Y121.372 E10.19371
G1 X278.201 Y121.756 E10.21412
G1 X278.242 Y122.150 E10.23483
G1 X278.253 Y167.528 E12.60559
G1 X278.237 Y167.919 E12.62601
G1 X278.190 Y168.312 E12.64672
G1 X278.114 Y168.701 E12.66743
G1 X278.009 Y169.084 E12.68814
G1 X277.871 Y169.467 E12.70944
G1 X277.704 Y169.839 E12.73074
G1 X277.509 Y170.197 E12.75204
G1 X277.283 Y170.543 E12.77364
G1 X277.034 Y170.866 E12.79494
G1 X276.761 Y171.169 E12.81624
G1 X276.465 Y171.450 E12.83755
G1 X276.144 Y171.710 E12.85914
G1 X275.809 Y171.941 E12.88044
G1 X275.456 Y172.146 E12.90175
G1 X275.088 Y172.323 E12.92305
G1 X274.708 Y172.470 E12.94435
G1 X274.318 Y172.588 E12.96565
G1 X273.920 Y172.675 E12.98695
G1 X273.516 Y172.731 E13.00825
G1 X273.103 Y172.756 E13.02985
G1 X113.903 Y172.757 E21.34723
G1 X113.507 Y172.741 E21.36794
G1 X113.108 Y172.695 E21.38894
G1 X112.713 Y172.619 E21.40995
G1 X112.331 Y172.514 E21.43066
G1 X111.963 Y172.383 E21.45107
G1 X111.605 Y172.225 E21.47149
G1 X111.261 Y172.041 E21.49190
G1 X110.931 Y171.832 E21.51232
G1 X110.617 Y171.598 E21.53273
G1 X110.322 Y171.342 E21.55314
G1 X110.046 Y171.065 E21.57356
G1 X109.789 Y170.764 E21.59427
G1 X109.554 Y170.444 E21.61498
G1 X109.348 Y170.113 E21.63539
G1 X109.166 Y169.767 E21.65581
G1 X109.011 Y169.408 E21.67622
G1 X108.883 Y169.039 E21.69664
G1 X108.782 Y168.661 E21.71705
G1 X108.710 Y168.277 E21.73747
G1 X108.666 Y167.883 E21.75818
G1 X108.652 Y167.504 E21.77800
G1 X108.654 Y122.375 E24.13575
G1 X108.689 Y121.884 E24.16149
G1 X108.768 Y121.404 E24.18693
G1 X108.893 Y120.927 E24.21267
G1 X109.062 Y120.465 E24.23840
G1 X109.274 Y120.020 E24.26414
G1 X109.527 Y119.597 E24.28987
G1 X109.818 Y119.199 E24.31561
G1 X110.145 Y118.831 E24.34135
G1 X110.505 Y118.495 E24.36708
G1 X110.895 Y118.194 E24.39282
G1 X111.311 Y117.930 E24.41856
G1 X111.750 Y117.707 E24.44429
G1 X112.208 Y117.526 E24.47003
G1 X112.681 Y117.389 E24.49577
G1 X113.165 Y117.296 E24.52150
G1 X113.652 Y117.250 E24.54706
G1 X113.713 Y117.876 F5400.000
G1 F1200
G1 X273.002 Y117.872 E32.86910
G1 X273.347 Y117.885 E32.88715
G1 X273.696 Y117.925 E32.90547
G1 X274.035 Y117.990 E32.92352
G1 X274.374 Y118.081 E32.94184
G1 X274.704 Y118.198 E32.96016
G1 X275.025 Y118.340 E32.97848
G1 X275.330 Y118.503 E32.99653
G1 X275.626 Y118.691 E33.01485
G1 X275.902 Y118.897 E33.03290
G1 X276.167 Y119.128 E33.05122
G1 X276.413 Y119.377 E33.06954
G1 X276.640 Y119.645 E33.08786
G1 X276.845 Y119.929 E33.10619
G1 X277.029 Y120.228 E33.12451
G1 X277.190 Y120.540 E33.14283
G1 X277.326 Y120.863 E33.16115
G1 X277.437 Y121.195 E33.17948
G1 X277.524 Y121.535 E33.19780
G1 X277.583 Y121.875 E33.21584
G1 X277.617 Y122.225 E33.23417
G1 X277.625 Y167.521 E35.60069
G1 X277.611 Y167.866 E35.61874
G1 X277.570 Y168.209 E35.63678
G1 X277.506 Y168.543 E35.65455
G1 X277.416 Y168.877 E35.67259
G1 X277.295 Y169.217 E35.69147
G1 X277.148 Y169.547 E35.71035
G1 X276.975 Y169.865 E35.72923
G1 X276.779 Y170.168 E35.74810
G1 X276.559 Y170.455 E35.76698
G1 X276.318 Y170.724 E35.78586
G1 X276.056 Y170.973 E35.80474
G1 X275.772 Y171.204 E35.82389
G1 X275.474 Y171.409 E35.84277
G1 X275.162 Y171.591 E35.86165
G1 X274.836 Y171.747 E35.88052
G1 X274.499 Y171.878 E35.89940
G1 X274.153 Y171.982 E35.91828
G1 X273.800 Y172.058 E35.93716
G1 X273.442 Y172.107 E35.95603
G1 X273.081 Y172.128 E35.97491
G1 X113.904 Y172.128 E44.29112
G1 X113.559 Y172.115 E44.30917
G1 X113.210 Y172.075 E44.32749
G1 X112.871 Y172.010 E44.34553
G1 X112.532 Y171.919 E44.36386
G1 X112.207 Y171.804 E44.38190
G1 X111.886 Y171.663 E44.40022
G1 X111.581 Y171.500 E44.41827
G1 X111.285 Y171.312 E44.43659
G1 X111.008 Y171.106 E44.45464
G1 X110.743 Y170.876 E44.47296
G1 X110.500 Y170.630 E44.49100
G1 X110.273 Y170.363 E44.50933
G1 X110.069 Y170.084 E44.52737
G1 X109.885 Y169.786 E44.54569
G1 X109.725 Y169.480 E44.56374
G1 X109.587 Y169.157 E44.58206
G1 X109.476 Y168.830 E44.60011
G1 X109.388 Y168.491 E44.61843
G1 X109.327 Y168.151 E44.63648
G1 X109.291 Y167.802 E44.65480
G1 X109.282 Y122.404 E47.02659
G1 X109.311 Y121.975 E47.04908
G1 X109.379 Y121.550 E47.07156
G1 X109.489 Y121.128 E47.09432
G1 X109.635 Y120.724 E47.11681
G1 X109.819 Y120.334 E47.13929
G1 X110.040 Y119.959 E47.16205
G1 X110.296 Y119.607 E47.18481
G1 X110.581 Y119.284 E47.20730
G1 X110.894 Y118.989 E47.22978
G1 X111.237 Y118.721 E47.25254
G1 X111.600 Y118.489 E47.27503
G1 X111.982 Y118.292 E47.29751
G1 X112.382 Y118.131 E47.32000
G1 X112.799 Y118.007 E47.34276
G1 X113.221 Y117.923 E47.36524
G1 X113.653 Y117.879 E47.38792
G1 E45.88792 F1800.00000
G92 E0
G1 X114.602 Y123.193 F5400.000
G1 E1.50000 F1800.00000
G1 F1200
G1 X179.398 Y123.193 E4.88529
G1 X179.398 Y166.807 E7.16393
G1 X114.602 Y166.807 E10.54923
G1 X114.602 Y123.253 E12.82473
G1 X114.109 Y122.700 F5400.000
G1 F1200
G1 X179.891 Y122.700 E14.77789
G1 X179.891 Y167.300 E16.10212
G1 X114.109 Y167.300 E18.05527
G1 X114.109 Y122.760 E19.37772
G1 X114.501 Y122.779 F5400.000
G1 E17.87772 F1800.00000
G92 E0
G1 X114.853 Y165.286 F5400.000
G1 E1.50000 F1800.00000
G1 F1200
G1 X115.841 Y166.273 E1.57297
G1 X116.729 Y166.273 E1.61941
G1 X115.136 Y164.680 E1.73716
G1 X115.136 Y163.791 E1.78359
G1 X117.618 Y166.273 E1.96701
G1 X118.507 Y166.273 E2.01345
G1 X115.136 Y162.902 E2.26253
G1 X115.136 Y162.014 E2.30897
G1 X119.395 Y166.273 E2.62373
G1 X120.284 Y166.273 E2.67016
G1 X115.136 Y161.125 E3.05059
G1 X115.136 Y160.236 E3.09702
G1 X121.173 Y166.273 E3.54312
G1 X122.061 Y166.273 E3.58956
G1 X115.136 Y159.348 E4.10132
G1 X115.136 Y158.459 E4.14776
G1 X122.950 Y166.273 E4.72520
G1 X123.839 Y166.273 E4.77163
G1 X115.136 Y157.570 E5.41474
G1 X115.136 Y156.682 E5.46117
G1 X124.727 Y166.273 E6.16995
G1 X125.616 Y166.273 E6.21638
G1 X115.136 Y155.793 E6.99083
G1 X115.136 Y154.904 E7.03726
G1 X126.505 Y166.273 E7.87738
G1 X127.393 Y166.273 E7.92382
G1 X115.136 Y154.016 E8.82960
G1 X115.136 Y153.127 E8.87604
G1 X128.282 Y166.273 E9.84749
G1 X129.171 Y166.273 E9.89393
G1 X115.136 Y152.238 E10.93105
G1 X115.136 Y151.349 E10.97749
G1 X130.060 Y166.273 E12.08028
G1 X130.948 Y166.273 E12.12672
G1 X115.136 Y150.461 E13.29518
G1 X115.136 Y149.572 E13.34161
G1 X131.837 Y166.273 E14.57575
G1 X132.726 Y166.273 E14.62218
G1 X115.136 Y148.683 E15.92199
G1 X115.136 Y147.795 E15.96842
G1 X133.614 Y166.273 E17.33389
G1 X134.503 Y166.273 E17.38033
G1 X115.136 Y146.906 E18.81147
G1 X115.136 Y146.017 E18.85791
G1 X135.392 Y166.273 E20.35472
G1 X136.280 Y166.273 E20.40115
G1 X115.136 Y145.129 E21.96364
G1 X115.136 Y144.240 E22.01007
G1 X137.169 Y166.273 E23.63822
G1 X138.058 Y166.273 E23.68466
G1 X115.136 Y143.351 E25.37848
G1 X115.136 Y142.463 E25.42492
G1 X138.946 Y166.273 E27.18441
G1 X139.835 Y166.273 E27.23084
G1 X115.136 Y141.574 E29.05600
G1 X115.136 Y140.685 E29.10244
G1 X140.724 Y166.273 E30.99327
G1 X141.613 Y166.273 E31.03970
G1 X115.136 Y139.796 E32.99620
G1 X115.136 Y138.908 E33.04264
G1 X142.501 Y166.273 E35.06481
G1 X143.390 Y166.273 E35.11124
G1 X115.136 Y138.019 E37.19908
G1 X115.136 Y137.130 E37.24552
G1 X144.279 Y166.273 E39.39903
G1 X145.167 Y166.273 E39.44546
G1 X115.136 Y136.242 E41.66464
G1 X115.136 Y135.353 E41.71108
G1 X146.056 Y166.273 E43.99593
G1 X146.945 Y166.273 E44.04236
G1 X115.136 Y134.464 E46.39288
G1 X115.136 Y133.576 E46.43932
G1 X147.833 Y166.273 E48.85550
G1 X148.722 Y166.273 E48.90194
G1 X115.136 Y132.687 E51.38380
G1 X115.136 Y131.798 E51.43023
G1 X149.611 Y166.273 E53.97776
G1 X150.499 Y166.273 E54.02419
G1 X115.136 Y130.910 E56.63739
G1 X115.136 Y130.021 E56.68383
G1 X151.388 Y166.273 E59.36269
G1 X152.277 Y166.273 E59.40913
G1 X115.136 Y129.132 E62.15366
G1 X115.136 Y128.243 E62.20010
G1 X153.166 Y166.273 E65.01031
G1 X154.054 Y166.273 E65.05674
G1 X115.136 Y127.355 E67.93262
G1 X115.136 Y126.466 E67.97905
G1 X154.943 Y166.273 E70.92060
G1 X155.832 Y166.273 E70.96703
G1 X115.136 Y125.577 E73.97425
G1 X115.136 Y124.689 E74.02068
G1 X156.720 Y166.273 E77.09357
G1 X157.609 Y166.273 E77.14000
G1 X115.136 Y123.800 E80.27856
G1 X115.136 Y123.727 E80.28239
G1 X115.951 Y123.727 E80.32499
G1 X158.498 Y166.273 E83.46896
G1 X159.386 Y166.273 E83.51540
G1 X116.840 Y123.727 E86.65937
G1 X117.729 Y123.727 E86.70580
G1 X160.275 Y166.273 E89.84977
G1 X161.164 Y166.273 E89.89621
G1 X118.617 Y123.727 E93.04018
G1 X119.506 Y123.727 E93.08661
G1 X162.052 Y166.273 E96.23058
G1 X162.941 Y166.273 E96.27702
G1 X120.395 Y123.727 E99.42099
G1 X121.283 Y123.727 E99.46742
G1 X163.830 Y166.273 E102.61139
G1 X164.718 Y166.273 E102.65783
G1 X122.172 Y123.727 E105.80180
G1 X123.061 Y123.727 E105.84823
G1 X165.607 Y166.273 E108.99220
G1 X166.496 Y166.273 E109.03864
G1 X123.949 Y123.727 E112.18261
G1 X124.838 Y123.727 E112.22904
G1 X167.385 Y166.273 E115.37301
G1 X168.273 Y166.273 E115.41945
G1 X125.727 Y123.727 E118.56342
G1 X126.615 Y123.727 E118.60985
G1 X169.162 Y166.273 E121.75382
G1 X170.051 Y166.273 E121.80026
G1 X127.504 Y123.727 E124.94423
G1 X128.393 Y123.727 E124.99066
G1 X170.939 Y166.273 E128.13463
G1 X171.828 Y166.273 E128.18107
G1 X129.281 Y123.727 E131.32504
G1 X130.170 Y123.727 E131.37148
G1 X172.717 Y166.273 E134.51544
G1 X173.605 Y166.273 E134.56188
G1 X131.059 Y123.727 E137.70585
G1 X131.948 Y123.727 E137.75229
G1 X174.494 Y166.273 E140.89626
G1 X175.383 Y166.273 E140.94269
G1 X132.836 Y123.727 E144.08666
G1 X133.725 Y123.727 E144.13310
G1 X176.271 Y166.273 E147.27707
G1 X177.160 Y166.273 E147.32350
G1 X134.614 Y123.727 E150.46747
G1 X135.502 Y123.727 E150.51391
G1 X178.049 Y166.273 E153.65788
G1 X178.864 Y166.273 E153.70048
G1 X178.864 Y166.200 E153.70431
G1 X136.391 Y123.727 E156.84287
G1 X137.280 Y123.727 E156.88930
G1 X178.864 Y165.311 E159.96219
G1 X178.864 Y164.423 E160.00862
G1 X138.168 Y123.727 E163.01584
G1 X139.057 Y123.727 E163.06228
G1 X178.864 Y163.534 E166.00382
G1 X178.864 Y162.645 E166.05026
G1 X139.946 Y123.727 E168.92614
G1 X140.834 Y123.727 E168.97257
G1 X178.864 Y161.757 E171.78278
G1 X178.864 Y160.868 E171.82921
G1 X141.723 Y123.727 E174.57375
G1 X142.612 Y123.727 E174.62019
G1 X178.864 Y159.979 E177.29905
G1 X178.864 Y159.090 E177.34549
G1 X143.501 Y123.727 E179.95869
G1 X144.389 Y123.727 E180.00512
G1 X178.864 Y158.202 E182.55265
G1 X178.864 Y157.313 E182.59909
G1 X145.278 Y123.727 E185.08095
G1 X146.167 Y123.727 E185.12738
G1 X178.864 Y156.424 E187.54357
G1 X178.864 Y155.536 E187.59001
G1 X147.055 Y123.727 E189.94053
G1 X147.944 Y123.727 E189.98696
G1 X178.864 Y154.647 E192.27181
G1 X178.864 Y153.758 E192.31825
G1 X148.833 Y123.727 E194.53743
G1 X149.721 Y123.727 E194.58386
G1 X178.864 Y152.870 E196.73737
G1 X178.864 Y151.981 E196.78381
G1 X150.610 Y123.727 E198.87165
G1 X151.499 Y123.727 E198.91809
G1 X178.864 Y151.092 E200.94026
G1 X178.864 Y150.204 E200.98669
G1 X152.387 Y123.727 E202.94319
G1 X153.276 Y123.727 E202.98963
G1 X178.864 Y149.315 E204.88046
G1 X178.864 Y148.426 E204.92690
G1 X154.165 Y123.727 E206.75206
G1 X155.054 Y123.727 E206.79849
G1 X178.864 Y147.537 E208.55799
G1 X178.864 Y146.649 E208.60442
G1 X155.942 Y123.727 E210.29824
G1 X156.831 Y123.727 E210.34468
G1 X178.864 Y145.760 E211.97283
G1 X178.864 Y144.871 E212.01927
G1 X157.720 Y123.727 E213.58175
G1 X158.608 Y123.727 E213.62819
G1 X178.864 Y143.983 E215.12500
G1 X178.864 Y143.094 E215.17144
G1 X159.497 Y123.727 E216.60258
G1 X160.386 Y123.727 E216.64901
G1 X178.864 Y142.205 E218.01449
G1 X178.864 Y141.317 E218.06092
G1 X161.274 Y123.727 E219.36073
G1 X162.163 Y123.727 E219.40716
G1 X178.864 Y140.428 E220.64130
G1 X178.864 Y139.539 E220.68773
G1 X163.052 Y123.727 E221.85620
G1 X163.940 Y123.727 E221.90263
G1 X178.864 Y138.651 E223.00543
G1 X178.864 Y137.762 E223.05187
G1 X164.829 Y123.727 E224.08899
G1 X165.718 Y123.727 E224.13543
G1 X178.864 Y136.873 E225.10688
G1 X178.864 Y135.985 E225.15332
G1 X166.606 Y123.727 E226.05910
G1 X167.495 Y123.727 E226.10554
G1 X178.864 Y135.096 E226.94566
G1 X178.864 Y134.207 E226.99209
G1 X168.384 Y123.727 E227.76654
G1 X169.273 Y123.727 E227.81297
G1 X178.864 Y133.318 E228.52175
G1 X178.864 Y132.430 E228.56819
G1 X170.161 Y123.727 E229.21129
G1 X171.050 Y123.727 E229.25773
G1 X178.864 Y131.541 E229.83517
G1 X178.864 Y130.652 E229.88160
G1 X171.939 Y123.727 E230.39337
G1 X172.827 Y123.727 E230.43981
G1 X178.864 Y129.764 E230.88591
G1 X178.864 Y128.875 E230.93234
G1 X173.716 Y123.727 E231.31277
G1 X174.605 Y123.727 E231.35921
G1 X178.864 Y127.986 E231.67396
G1 X178.864 Y127.098 E231.72040
G1 X175.493 Y123.727 E231.96949
G1 X176.382 Y123.727 E232.01592
G1 X178.864 Y126.209 E232.19934
G1 X178.864 Y125.320 E232.24578
G1 X177.271 Y123.727 E232.36353
G1 X178.159 Y123.727 E232.40997
G1 X179.147 Y124.714 E232.48294
G1 Z0.200 F5400.000
G1 E230.98294 F1800.00000
G92 E0
G1 X194.303 Y166.200 F5400.000
G1 E1.50000 F1800.00000
G1 F1200
G1 X271.697 Y166.200 E3.79792
G1 X271.697 Y150.200 E4.27298
G1 X272.797 Y150.200 E4.30564
G1 X272.797 Y167.300 E4.81336
G1 X193.203 Y167.300 E7.17660
G1 X193.203 Y150.200 E7.68432
G1 X194.303 Y150.200 E7.71698
G1 X194.303 Y166.140 E8.19026
G1 X194.312 Y166.600 F5400.000
G1 X193.753 Y166.446 F5400.000
G1 F1200
G1 X193.753 Y150.446 E8.94111
G1 E7.44111 F1800.00000
G92 E0
G1 X193.753 Y166.446 F5400.000
G1 E1.50000 F1800.00000
G1 F1200
G1 X193.805 Y166.698 E1.51354
G1 X193.973 Y166.733 E1.52257
G1 F1200
G1 X194.057 Y166.750 E1.52658
G1 X271.943 Y166.750 E5.18168
G1 F1200
G1 X272.195 Y166.698 E5.19522
G1 X272.229 Y166.530 E5.20424
G1 F1200
G1 X272.247 Y166.446 E5.20826
G1 X272.247 Y150.446 E5.95912
G1 E4.45912 F1800.00000
G92 E0
G1 X206.793 Y129.293 F5400.000
G1 E1.50000 F1800.00000
G1 F1200
G1 X206.896 Y129.271 E1.50477
G1 F1200
G1 X207.000 Y129.250 E1.50879
G1 X233.000 Y129.250 E2.49696
G1 F1200
G1 X233.207 Y129.293 E2.50650
G1 X233.229 Y129.396 E2.51128
G1 F1200
G1 X233.250 Y129.500 E2.51530
G1 X233.250 Y154.500 E3.46546
G1 F1200
G1 X233.207 Y154.707 E3.47500
G1 X233.104 Y154.729 E3.47978
G1 F1200
G1 X233.000 Y154.750 E3.48380
G1 X207.000 Y154.750 E4.47196
G1 F1200
G1 X206.793 Y154.707 E4.48151
G1 X206.771 Y154.604 E4.48628
G1 F1200
G1 X206.750 Y154.500 E4.49030
G1 X206.750 Y129.500 E5.44046
G1 F1200
G1 X206.781 Y129.352 E5.44730
G1 X206.863 Y129.213 F5400.000
G1 E3.94730 F1800.00000
G92 E0
G1 X247.057 Y150.307 F5400.000
G1 E1.50000 F1800.00000
G1 F1200
G1 X250.943 Y150.307 E1.70299
G1 X250.943 Y152.693 E1.82762
G1 X247.057 Y152.693 E2.03061
G1 X247.057 Y150.367 E2.15210
G1 X247.550 Y150.800 F5400.000
G1 F1200
G1 X250.450 Y150.800 E2.23820
G1 X250.450 Y152.200 E2.27977
G1 X247.550 Y152.200 E2.36588
G1 X247.550 Y150.860 E2.40566
G1 X247.404 Y150.428 F5400.000
G1 X247.626 Y149.229 F5400.000
G1 F1200
G1 X246.777 Y148.851 E2.45423
G1 X246.025 Y148.304 E2.50279
G1 X245.403 Y147.614 E2.55136
G1 X244.938 Y146.809 E2.59992
G1 X244.651 Y145.924 E2.64849
G1 X244.553 Y145.000 E2.69706
G1 X244.651 Y144.076 E2.74562
G1 X244.938 Y143.191 E2.79419
G1 X245.403 Y142.386 E2.84275
G1 X246.025 Y141.696 E2.89132
G1 X246.777 Y141.149 E2.93988
G1 X247.626 Y140.771 E2.98845
